X: 47
T:North Skelton 3, v 1
% Nottingham Music Database
S:Trad, via EF
M:4/4
L:1/4
K:D
G|"D"F2 DF|"G"G2 EG|"D"F2 DF|"A7"EF GE|"D"F2 DF|"G"G2 EG|"D"FA "A7"GE|\
"D"D2 "A7"E2|
"D"FA dc|"G"B2 AG|"D"FA/2F/2 dF|"A7"GF E2|"D"DF/2A/2 dA|"G"B2 AG|"D"FA "A7"GE|\
"D"D3||


